packages/icons/src/svg/sort-az.svg

<svg xmlns="http://www.w3.org/2000/svg" viewBox="0 0 16 16"><path d="M3,16,0,12H2V0H4V12H6ZM9,9H7l3-9h2l3,9H13L12,6H10Zm1.02344-3.99023L12,5,11,2C10.9043,2.416,10.02344,5.00977,10.02344,5.00977ZM13,12V11H9v1h2L9,15v1h4V15H11Z"/></svg>

<svg xmlns="http://www.w3.org/2000/svg" viewBox="0 0 16 16">
	<path d="M3 16l-3-4h2V0h2v12h2zm6-7H7l3-9h2l3 9h-2l-1-3h-2zm1.023-3.99L12 5l-1-3c-.096.416-.977 3.01-.977 3.01zM13 12v-1H9v1h2l-2 3v1h4v-1h-2z"/>
</svg>
